X: 1
T: Lively and Happy
T: Lebedich un Freilech
C: trad. arr. Shana Aisenberg
R: freilach, bulgar
S: Fiddle Hell Online 2020-11-09
S: Fiddle Hell Online 2022-4-2 handout for Shana Aisenberg workshop
Z: 2020 John Chambers <jc:trillian.mit.edu>
M: 2/4
L: 1/8
K: Ddor
"^A"\
|: "Dm"D2 FE- | ED EF | A^G BA- | A^G FE | D2 FE- | ED EF | A^G BG | "A"AA, B,^C |
|  "Dm"D2 FE- | ED EF | A^G BA- | A^G FE | D2 FE- | "A"ED EF | "Dm"D4- | DD FA |
|  "Dm"d2 d2 | d2 de | "Am"c/B/A2 A- | AD FA | "Dm"d2 d2 | d2 de | "Am"c/B/A2 A- | AA, B,^C |
|  "Dm"D2 FE- | ED EF | A^G BA- | A^G FE | D2 FE- | "A"ED EF | "Dm"D4- | "^Fine"DD GA |[K:G]
"^B"\
|: "G"B4- | BA BA | G D3- | DD GA | {Bc}BA {Bc}BA | {Bc}BA {Bc}BA | G D3- | DD GA |
|  "G"B4 | "Gm"_B4 | "A"AG FE- | EE FG | AF GE | FD E^C | "D"Dd AF |[1 DD GA :|[2 D4 |]
N: There's a "D.C. al Fine" in the 1st ending of the B part, which makes no sense.
